src/actions/16/tools-media-optical-erase.svg

<svg xmlns="http://www.w3.org/2000/svg" viewBox="0 0 16 16">
  <defs id="defs3051">
    <style type="text/css" id="current-color-scheme">
      .ColorScheme-Text {
        color:#363636;
      }
      </style>
  </defs>
 <path style="fill:currentColor;fill-opacity:1;stroke:none" 
     d="M8 2A6 6.00001 0 0 0 2 8 6 6.00001 0 0 0 8 14V13A5 5 0 0 1 3 8 5 5 0 0 1 8 3 5 5 0 0 1 13 8 5 5 0 0 1 12.898438 9H13.914A6 6.00001 0 0 0 14 8 6 6.00001 0 0 0 8 2M8 4C5.791 4 4 5.791 4 8H6C6 6.895 6.895 6 8 6zM8 7A1 1 0 0 0 7 8 1 1 0 0 0 8 9 1 1 0 0 0 9 8 1 1 0 0 0 8 7M10 10L8 12 10 14H14V10zM10.6 11H13V13H10.6L9.6 12z"
     class="ColorScheme-Text"
     />
</svg>

<?xml version="1.0" encoding="UTF-8"?>
<svg viewBox="0 0 16 16" xmlns="http://www.w3.org/2000/svg">
 <defs id="defs3051">
  <style id="current-color-scheme" type="text/css">.ColorScheme-Text {
        color:#363636;
      }</style>
 </defs>
 <path class="ColorScheme-Text" d="m8 2a6 6 0 0 0-6 6 6 6 0 0 0 6 6v-1a5 5 0 0 1-5-5 5 5 0 0 1 5-5 5 5 0 0 1 5 5 5 5 0 0 1-0.10156 1h1.0156a6 6 0 0 0 0.086-1 6 6 0 0 0-6-6m0 2c-2.209 0-4 1.791-4 4h2c0-1.105 0.895-2 2-2zm0 3a1 1 0 0 0-1 1 1 1 0 0 0 1 1 1 1 0 0 0 1-1 1 1 0 0 0-1-1m2 3-2 2 2 2h4v-4zm0.6 1h2.4v2h-2.4l-1-1z" fill="currentColor"/>
</svg>
